teeny/outline/svg.svg

<svg width="15" height="15" viewBox="0 0 15 15" fill="none" xmlns="http://www.w3.org/2000/svg">
<path d="M13.5 3.5H14V3.29289L13.8536 3.14645L13.5 3.5ZM10.5 0.5L10.8536 0.146447L10.7071 0H10.5V0.5ZM2.5 6.5V6H2V6.5H2.5ZM2.5 8.5H2V9H2.5V8.5ZM4.5 8.5H5V8H4.5V8.5ZM4.5 10.5V11H5V10.5H4.5ZM6.5 9.5H6V9.70711L6.14645 9.85355L6.5 9.5ZM7.5 10.5L7.14645 10.8536L7.5 11.2071L7.85355 10.8536L7.5 10.5ZM8.5 9.5L8.85355 9.85355L9 9.70711V9.5H8.5ZM10.5 6.5V6H10V6.5H10.5ZM10.5 10.5H10V11H10.5V10.5ZM12.5 10.5V11H13V10.5H12.5ZM2 5V1.5H1V5H2ZM13 3.5V5H14V3.5H13ZM2.5 1H10.5V0H2.5V1ZM10.1464 0.853553L13.1464 3.85355L13.8536 3.14645L10.8536 0.146447L10.1464 0.853553ZM2 1.5C2 1.22386 2.22386 1 2.5 1V0C1.67157 0 1 0.671573 1 1.5H2ZM1 12V13.5H2V12H1ZM2.5 15H12.5V14H2.5V15ZM14 13.5V12H13V13.5H14ZM12.5 15C13.3284 15 14 14.3284 14 13.5H13C13 13.7761 12.7761 14 12.5 14V15ZM1 13.5C1 14.3284 1.67157 15 2.5 15V14C2.22386 14 2 13.7761 2 13.5H1ZM5 6H2.5V7H5V6ZM2 6.5V8.5H3V6.5H2ZM2.5 9H4.5V8H2.5V9ZM4 8.5V10.5H5V8.5H4ZM4.5 10H2V11H4.5V10ZM6 6V9.5H7V6H6ZM6.14645 9.85355L7.14645 10.8536L7.85355 10.1464L6.85355 9.14645L6.14645 9.85355ZM7.85355 10.8536L8.85355 9.85355L8.14645 9.14645L7.14645 10.1464L7.85355 10.8536ZM9 9.5V6H8V9.5H9ZM13 6H10.5V7H13V6ZM10 6.5V10.5H11V6.5H10ZM10.5 11H12.5V10H10.5V11ZM13 10.5V8.5H12V10.5H13Z" fill="black"/>
</svg>

<svg viewBox="0 0 15 15" xmlns="http://www.w3.org/2000/svg"><path d="M13.5 3.5h.5v-.21l-.15-.15 -.36.35Zm-3-3l.35-.36 -.15-.15h-.21v.5Zm-8 6V6H2v.5h.5Zm0 2H2V9h.5v-.5Zm2 0H5V8h-.5v.5Zm0 2v.5H5v-.5h-.5Zm2-1H6v.2l.14.14 .35-.36Zm1 1l-.36.35 .35.35 .35-.36 -.36-.36Zm1-1l.35.35 .14-.15v-.21h-.5Zm2-3V6H10v.5h.5Zm0 4H10v.5h.5v-.5Zm2 0v.5h.5v-.5h-.5ZM2 5V1.5H1V5h1Zm11-1.5V5h1V3.5h-1ZM2.5 1h8V0h-8v1Zm7.64-.15l3 2.99 .7-.71 -3-3.01 -.71.7Zm-8.15.64c0-.28.22-.5.5-.5v-1c-.83 0-1.5.67-1.5 1.5h1Zm-1 10.5v1.5h1v-1.5h-1Zm1.5 3h10v-1h-10v1Zm11.5-1.5v-1.5h-1v1.5h1Zm-1.5 1.5c.82 0 1.5-.68 1.5-1.5h-1c0 .27-.23.5-.5.5v1Zm-11.5-1.5c0 .82.67 1.5 1.5 1.5v-1c-.28 0-.5-.23-.5-.5h-1Zm4-7.5h-2.5v1h2.5v-1Zm-3 .5v2h1v-2h-1Zm.5 2.5h2v-1h-2v1Zm1.5-.5v2h1v-2h-1Zm.5 1.5h-2.5v1h2.5v-1Zm1.5-4v3.5h1v-3.5h-1Zm.14 3.85l1 1 .7-.71 -1-1 -.71.7Zm1.7 1l1-1.01 -.71-.71 -1 .99 .7.7Zm1.14-1.36v-3.5h-1v3.5h1Zm4-3.5h-2.5v1h2.5v-1Zm-3 .5v4h1v-4h-1Zm.5 4.5h2v-1h-2v1Zm2.5-.5v-2h-1v2h1Z"/></svg>
